Adwaita++/apps/scalable/planwork.svg

<svg fill="none" height="128" viewBox="0 0 128 128" width="128" xmlns="http://www.w3.org/2000/svg">
  <path d="m112 16.5h-96c-4.4183 0-8 3.9399-8 8.8v81.4c0 4.86 3.5817 8.8 8 8.8h96c4.418 0 8-3.94 8-8.8v-81.4c0-4.8601-3.582-8.8-8-8.8z" fill="#deddda"/>
  <path d="m112 16.5h-96c-4.4183 0-8 3.9399-8 8.8v14.4h112v-14.4c0-4.8601-3.582-8.8-8-8.8z" fill="#986a44"/>
  <path d="m8 105.5v2c0 4.432 3.568 8 8 8h96c4.432 0 8-3.568 8-8v-2c0 4.432-3.568 8-8 8h-96c-4.432 0-8-3.568-8-8z" fill="#241f31" opacity=".8"/>
  <rect fill="#241f31" height="11.125" opacity=".5" rx="1" width="36.875" x="16.25" y="9.9375"/>
  <rect fill="#241f31" height="11.125" opacity=".5" rx="1" width="36.875" x="77.25" y="9.9375"/>
  <rect fill="#5e5c64" height="11.125" rx="1" width="36.875" x="15.25" y="8.9375"/>
  <rect fill="#5e5c64" height="11.125" rx="1" width="36.875" x="76.25" y="8.9375"/>
  <path d="m48.2284 26.0711c.1568.2195.4755.648.9563 1.2856 0 0-.4285.4285-1.2856 1.2855-.857.8571-1.2855 1.7141-1.2855 2.5712 0 1.2855.4285 2.2471 1.2855 2.8846.8571.648 1.2856.972 1.2856.972-.4285 1.0661-.6428 1.5991-.6428 1.5991-1.9231-2.3516-3.7417-2.3516-5.4558 0-.1045-.2717-.1829-.4703-.2351-.5957-.0627-.1359-.1986-.4703-.4076-1.0034 0 0 .4285-.324 1.2855-.972.8571-.6375 1.2856-1.5991 1.2856-2.8846 0-.8571-.4285-1.7141-1.2856-2.5712-.857-.857-1.2855-1.2855-1.2855-1.2855.209-.2822.5278-.7107.9563-1.2856 1.7141 2.5711 3.3236 2.5711 4.8287 0z" fill="#3d3846"/>
  <path d="m55.6125 26.0711s-.1045.2665-.3135.7996c-.2195.533-.3293.7995-.3293.7995-.5748 0-1.4319 0-2.5711 0 .2718.4808.81 1.4476 1.6148 2.9004-2.1426 1.4946-2.7854 2.8846-1.9283 4.1702.4285.648 1.0713.7578 1.9283.3292.209 1.0661.3135 1.5991.3135 1.5991-.2926.0419-.5487.0784-.7682.1098-.2299.0209-.4337.0366-.6114.047-.0313 0-.0627 0-.094 0-.2822 0-.5174-.0418-.7055-.1254-.2195-.0941-.4547-.2717-.7055-.533-.1359-.1359-.2822-.2927-.439-.4704-.1568-.1881-.3344-.4024-.533-.6427-.2404-.554-.3606-1.0975-.3606-1.6305 0-1.2333.6584-2.3987 1.9754-3.4961-.4286-.857-1.0713-2.1426-1.9284-3.8567z" fill="#3d3846"/>
  <path d="m59.7984 26.4003c-.857.4286-1.2855.8571-1.2855 1.2856s.3187.7473.9563.9563c-.2822.2822-.7107.7108-1.2856 1.2856-1.066-.857-1.5991-1.4998-1.5991-1.9283 0-.6376.4285-1.2804 1.2856-1.9284-.2822-.2822-.7107-.7107-1.2856-1.2855.2718-.2091.8048-.6376 1.5991-1.2856.2718.4808.81 1.4476 1.6148 2.9003z" fill="#3d3846"/>
  <path d="m61.3035 26.0711c-.1046.2718-.3136.81-.6271 1.6148h1.9126c.2195 4.7033-.0993 7.4834-.9563 8.3405.3553.2195.8884.5382 1.5991.9563 1.0765-1.9231 1.4005-5.022.972-9.2968h3.2139c.6376 3.4177.3136 5.8791-.972 7.3841.3554.2091.8936.5278 1.6148.9564.9511-1.2229 1.4266-3.0101 1.4266-5.3618 0-1.3482-.1567-2.8794-.4703-4.5935-1.7141 0-4.2852 0-7.7133 0z" fill="#3d3846"/>
  <path d="m79.9284 25.7576s.0888.5748.2665 1.7245c-1.505-.0941-2.7854-.1202-3.841-.0784-1.0556.0523-2.1112.1463-3.1669.2822-.4285.209-.6427.7421-.6427 1.5991 0 1.4946.1097 3.8515.3292 7.0706-.3554.0627-.8936.1672-1.6148.3135-.209-3.2191-.3135-5.6543-.3135-7.3057 0-1.6618.1045-2.545.3135-2.6495.2195-.209.6062-.4024 1.1601-.5801 1.5678-.2508 4.071-.3762 7.5096-.3762z" fill="#3d3846"/>
  <path d="m84.6003 26.0711c.0523.2718.1568.81.3136 1.6148-1.9232.6376-2.6705 1.7036-2.2419 3.1982h2.8846c-.4285 1.0766-.6427 1.6148-.6427 1.6148s-.6219 0-1.8657 0c.3345 1.0556.8518 2.3412 1.5521 3.8567-.3553.1359-.8936.3449-1.6148.6271-.209-.6376-.6375-1.8656-1.2855-3.6842-.554-1.3169-.8309-2.4457-.8309-3.3864 0-1.1079.3867-1.9597 1.1601-2.5554.6375-.4285 1.4946-.8571 2.5711-1.2856z" fill="#3d3846"/>
  <g fill="#deddda">
    <path d="m48.2284 25.3291c.1568.2194.4755.648.9563 1.2855 0 0-.4285.4285-1.2856 1.2856-.857.857-1.2855 1.7141-1.2855 2.5711 0 1.2856.4285 2.2471 1.2855 2.8847.8571.648 1.2856.972 1.2856.972-.4285 1.066-.6428 1.5991-.6428 1.5991-1.9231-2.3517-3.7417-2.3517-5.4558 0-.1045-.2718-.1829-.4703-.2351-.5958-.0627-.1358-.1986-.4703-.4076-1.0033 0 0 .4285-.324 1.2855-.972.8571-.6376 1.2856-1.5991 1.2856-2.8847 0-.857-.4285-1.7141-1.2856-2.5711-.857-.8571-1.2855-1.2856-1.2855-1.2856.209-.2822.5278-.7107.9563-1.2855 1.7141 2.5711 3.3236 2.5711 4.8287 0z"/>
    <path d="m55.6125 25.3291s-.1045.2665-.3135.7995c-.2195.533-.3293.7996-.3293.7996-.5748 0-1.4319 0-2.5711 0 .2718.4807.81 1.4475 1.6148 2.9003-2.1426 1.4946-2.7854 2.8847-1.9283 4.1702.4285.648 1.0713.7578 1.9283.3293.209 1.066.3135 1.5991.3135 1.5991-.2926.0418-.5487.0784-.7682.1097-.2299.0209-.4337.0366-.6114.0471-.0313 0-.0627 0-.094 0-.2822 0-.5174-.0418-.7055-.1255-.2195-.094-.4547-.2717-.7055-.533-.1359-.1359-.2822-.2926-.439-.4703-.1568-.1882-.3344-.4024-.533-.6428-.2404-.5539-.3606-1.0974-.3606-1.6305 0-1.2333.6584-2.3986 1.9754-3.4961-.4286-.857-1.0713-2.1426-1.9284-3.8566z"/>
    <path d="m59.7984 25.6583c-.857.4285-1.2855.857-1.2855 1.2855 0 .4286.3187.7473.9563.9564-.2822.2822-.7107.7107-1.2856 1.2855-1.066-.857-1.5991-1.4998-1.5991-1.9283 0-.6376.4285-1.2803 1.2856-1.9283-.2822-.2822-.7107-.7108-1.2856-1.2856.2718-.209.8048-.6376 1.5991-1.2856.2718.4808.81 1.4476 1.6148 2.9004z"/>
    <path d="m61.3035 25.3291c-.1046.2717-.3136.81-.6271 1.6147h1.9126c.2195 4.7033-.0993 7.4835-.9563 8.3405.3553.2195.8884.5383 1.5991.9563 1.0765-1.9231 1.4005-5.022.972-9.2968h3.2139c.6376 3.4177.3136 5.8791-.972 7.3842.3554.209.8936.5278 1.6148.9563.9511-1.2228 1.4266-3.0101 1.4266-5.3617 0-1.3483-.1567-2.8795-.4703-4.5935-1.7141 0-4.2852 0-7.7133 0z"/>
    <path d="m79.9284 25.0155s.0888.5748.2665 1.7245c-1.505-.094-2.7854-.1202-3.841-.0784-1.0556.0523-2.1112.1464-3.1669.2822-.4285.2091-.6427.7421-.6427 1.5992 0 1.4945.1097 3.8514.3292 7.0705-.3554.0627-.8936.1673-1.6148.3136-.209-3.2191-.3135-5.6544-.3135-7.3058 0-1.6618.1045-2.5449.3135-2.6495.2195-.209.6062-.4024 1.1601-.58 1.5678-.2509 4.071-.3763 7.5096-.3763z"/>
    <path d="m84.6003 25.3291c.0523.2717.1568.81.3136 1.6147-1.9232.6376-2.6705 1.7037-2.2419 3.1983h2.8846c-.4285 1.0765-.6427 1.6148-.6427 1.6148s-.6219 0-1.8657 0c.3345 1.0556.8518 2.3411 1.5521 3.8566-.3553.1359-.8936.3449-1.6148.6271-.209-.6375-.6375-1.8656-1.2855-3.6842-.554-1.3169-.8309-2.4457-.8309-3.3863 0-1.1079.3867-1.9597 1.1601-2.5555.6375-.4285 1.4946-.857 2.5711-1.2855z"/>
  </g>
  <path d="m8 39.625h112v2h-112z" fill="#63452c"/>
  <path d="m8 41.625h30v11c0 2.7614-2.2386 5-5 5h-25z" fill="#c4c4c4"/>
  <path d="m90 102.5c0-2.7614 2.2386-5 5-5h25v8c0 4.418-3.582 8-8 8h-22z" fill="#c4c4c4"/>
  <rect fill="#ed333b" height="8" rx="1" width="22" x="43.6875" y="49.625"/>
  <rect fill="#2ec27e" height="8" rx="1" width="22" x="91.125" y="50.25"/>
  <rect fill="#ed333b" height="8" rx="1" width="22" x="13.6875" y="77.4062"/>
  <rect fill="#2ec27e" height="8" rx="1" width="22" x="35.6875" y="91.455"/>
  <rect fill="#ed333b" height="8" rx="1" width="22" x="58.5" y="77.4062"/>
  <rect fill="#2ec27e" height="8" rx="1" width="22" x="13.6875" y="62.892"/>
  <rect fill="#2ec27e" height="8" rx="1" width="22" x="43.6875" y="62.892"/>
  <rect fill="#2ec27e" height="8" rx="1" width="22" x="73.6875" y="62.892"/>
</svg>

<svg width="128" height="128" viewBox="0 0 128 128" fill="none" xmlns="http://www.w3.org/2000/svg">
<path d="M112 16.5H16C11.5817 16.5 8 20.4399 8 25.3V106.7C8 111.56 11.5817 115.5 16 115.5H112C116.418 115.5 120 111.56 120 106.7V25.3C120 20.4399 116.418 16.5 112 16.5Z" fill="url(#paint0_linear)"/>
<path d="M112 16.5H16C11.5817 16.5 8 20.4399 8 25.3V39.7H120V25.3C120 20.4399 116.418 16.5 112 16.5Z" fill="url(#paint1_linear)"/>
<path opacity="0.8" d="M8 105.5V107.5C8 111.932 11.568 115.5 16 115.5H112C116.432 115.5 120 111.932 120 107.5V105.5C120 109.932 116.432 113.5 112 113.5H16C11.568 113.5 8 109.932 8 105.5Z" fill="url(#paint2_linear)"/>
<rect opacity="0.5" x="16.25" y="9.9375" width="36.875" height="11.125" rx="1" fill="url(#paint3_linear)"/>
<rect opacity="0.5" x="77.25" y="9.9375" width="36.875" height="11.125" rx="1" fill="url(#paint4_linear)"/>
<rect x="15.25" y="8.9375" width="36.875" height="11.125" rx="1" fill="url(#paint5_linear)"/>
<rect x="76.25" y="8.9375" width="36.875" height="11.125" rx="1" fill="url(#paint6_linear)"/>
<path d="M48.2284 26.0711C48.3852 26.2906 48.7039 26.7191 49.1847 27.3567C49.1847 27.3567 48.7562 27.7852 47.8991 28.6422C47.0421 29.4993 46.6136 30.3563 46.6136 31.2134C46.6136 32.4989 47.0421 33.4605 47.8991 34.098C48.7562 34.746 49.1847 35.07 49.1847 35.07C48.7562 36.1361 48.5419 36.6691 48.5419 36.6691C46.6188 34.3175 44.8002 34.3175 43.0861 36.6691C42.9816 36.3974 42.9032 36.1988 42.851 36.0734C42.7883 35.9375 42.6524 35.6031 42.4434 35.07C42.4434 35.07 42.8719 34.746 43.7289 34.098C44.586 33.4605 45.0145 32.4989 45.0145 31.2134C45.0145 30.3563 44.586 29.4993 43.7289 28.6422C42.8719 27.7852 42.4434 27.3567 42.4434 27.3567C42.6524 27.0745 42.9712 26.646 43.3997 26.0711C45.1138 28.6422 46.7233 28.6422 48.2284 26.0711Z" fill="url(#paint7_linear)"/>
<path d="M55.6125 26.0711C55.6125 26.0711 55.508 26.3376 55.299 26.8707C55.0795 27.4037 54.9697 27.6702 54.9697 27.6702C54.3949 27.6702 53.5378 27.6702 52.3986 27.6702C52.6704 28.151 53.2086 29.1178 54.0134 30.5706C51.8708 32.0652 51.228 33.4552 52.0851 34.7408C52.5136 35.3888 53.1564 35.4986 54.0134 35.07C54.2224 36.1361 54.3269 36.6691 54.3269 36.6691C54.0343 36.711 53.7782 36.7475 53.5587 36.7789C53.3288 36.7998 53.125 36.8155 52.9473 36.8259C52.916 36.8259 52.8846 36.8259 52.8533 36.8259C52.5711 36.8259 52.3359 36.7841 52.1478 36.7005C51.9283 36.6064 51.6931 36.4288 51.4423 36.1675C51.3064 36.0316 51.1601 35.8748 51.0033 35.6971C50.8465 35.509 50.6689 35.2947 50.4703 35.0544C50.2299 34.5004 50.1097 33.9569 50.1097 33.4239C50.1097 32.1906 50.7681 31.0252 52.0851 29.9278C51.6565 29.0708 51.0138 27.7852 50.1567 26.0711C51.066 26.0711 52.8846 26.0711 55.6125 26.0711Z" fill="url(#paint8_linear)"/>
<path d="M59.7984 26.4003C58.9414 26.8289 58.5129 27.2574 58.5129 27.6859C58.5129 28.1144 58.8316 28.4332 59.4692 28.6422C59.187 28.9244 58.7585 29.353 58.1836 29.9278C57.1176 29.0708 56.5845 28.428 56.5845 27.9995C56.5845 27.3619 57.013 26.7191 57.8701 26.0711C57.5879 25.7889 57.1594 25.3604 56.5845 24.7856C56.8563 24.5765 57.3893 24.148 58.1836 23.5C58.4554 23.9808 58.9936 24.9476 59.7984 26.4003Z" fill="url(#paint9_linear)"/>
<path d="M61.3035 26.0711C61.1989 26.3429 60.9899 26.8811 60.6764 27.6859C60.9899 27.6859 61.6275 27.6859 62.589 27.6859C62.8085 32.3892 62.4897 35.1693 61.6327 36.0264C61.988 36.2459 62.5211 36.5646 63.2318 36.9827C64.3083 35.0596 64.6323 31.9607 64.2038 27.6859C64.9145 27.6859 65.9858 27.6859 67.4177 27.6859C68.0553 31.1036 67.7313 33.565 66.4457 35.07C66.8011 35.2791 67.3393 35.5978 68.0605 36.0264C69.0116 34.8035 69.4871 33.0163 69.4871 30.6646C69.4871 29.3164 69.3304 27.7852 69.0168 26.0711C67.3027 26.0711 64.7316 26.0711 61.3035 26.0711Z" fill="url(#paint10_linear)"/>
<path d="M79.9284 25.7576C79.9284 25.7576 80.0172 26.3324 80.1949 27.4821C78.6899 27.388 77.4095 27.3619 76.3539 27.4037C75.2983 27.456 74.2427 27.55 73.187 27.6859C72.7585 27.8949 72.5443 28.428 72.5443 29.285C72.5443 30.7796 72.654 33.1365 72.8735 36.3556C72.5181 36.4183 71.9799 36.5228 71.2587 36.6691C71.0497 33.45 70.9452 31.0148 70.9452 29.3634C70.9452 27.7016 71.0497 26.8184 71.2587 26.7139C71.4782 26.5049 71.8649 26.3115 72.4188 26.1338C73.9866 25.883 76.4898 25.7576 79.9284 25.7576Z" fill="url(#paint11_linear)"/>
<path d="M84.6003 26.0711C84.6526 26.3429 84.7571 26.8811 84.9139 27.6859C82.9907 28.3235 82.2434 29.3895 82.672 30.8841C83.3095 30.8841 84.2711 30.8841 85.5566 30.8841C85.1281 31.9607 84.9139 32.4989 84.9139 32.4989C84.9139 32.4989 84.292 32.4989 83.0482 32.4989C83.3827 33.5545 83.9 34.8401 84.6003 36.3556C84.245 36.4915 83.7067 36.7005 82.9855 36.9827C82.7765 36.3451 82.348 35.1171 81.7 33.2985C81.146 31.9816 80.8691 30.8528 80.8691 29.9121C80.8691 28.8042 81.2558 27.9524 82.0292 27.3567C82.6667 26.9282 83.5238 26.4996 84.6003 26.0711Z" fill="url(#paint12_linear)"/>
<path d="M48.2284 25.3291C48.3852 25.5485 48.7039 25.9771 49.1847 26.6146C49.1847 26.6146 48.7562 27.0431 47.8991 27.9002C47.0421 28.7572 46.6136 29.6143 46.6136 30.4713C46.6136 31.7569 47.0421 32.7184 47.8991 33.356C48.7562 34.004 49.1847 34.328 49.1847 34.328C48.7562 35.394 48.5419 35.9271 48.5419 35.9271C46.6188 33.5754 44.8002 33.5754 43.0861 35.9271C42.9816 35.6553 42.9032 35.4568 42.851 35.3313C42.7883 35.1955 42.6524 34.861 42.4434 34.328C42.4434 34.328 42.8719 34.004 43.7289 33.356C44.586 32.7184 45.0145 31.7569 45.0145 30.4713C45.0145 29.6143 44.586 28.7572 43.7289 27.9002C42.8719 27.0431 42.4434 26.6146 42.4434 26.6146C42.6524 26.3324 42.9712 25.9039 43.3997 25.3291C45.1138 27.9002 46.7233 27.9002 48.2284 25.3291Z" fill="url(#paint13_linear)"/>
<path d="M55.6125 25.3291C55.6125 25.3291 55.508 25.5956 55.299 26.1286C55.0795 26.6616 54.9697 26.9282 54.9697 26.9282C54.3949 26.9282 53.5378 26.9282 52.3986 26.9282C52.6704 27.4089 53.2086 28.3757 54.0134 29.8285C51.8708 31.3231 51.228 32.7132 52.0851 33.9987C52.5136 34.6467 53.1564 34.7565 54.0134 34.328C54.2224 35.394 54.3269 35.9271 54.3269 35.9271C54.0343 35.9689 53.7782 36.0055 53.5587 36.0368C53.3288 36.0577 53.125 36.0734 52.9473 36.0839C52.916 36.0839 52.8846 36.0839 52.8533 36.0839C52.5711 36.0839 52.3359 36.0421 52.1478 35.9584C51.9283 35.8644 51.6931 35.6867 51.4423 35.4254C51.3064 35.2895 51.1601 35.1328 51.0033 34.9551C50.8465 34.7669 50.6689 34.5527 50.4703 34.3123C50.2299 33.7584 50.1097 33.2149 50.1097 32.6818C50.1097 31.4485 50.7681 30.2832 52.0851 29.1857C51.6565 28.3287 51.0138 27.0431 50.1567 25.3291C51.066 25.3291 52.8846 25.3291 55.6125 25.3291Z" fill="url(#paint14_linear)"/>
<path d="M59.7984 25.6583C58.9414 26.0868 58.5129 26.5153 58.5129 26.9438C58.5129 27.3724 58.8316 27.6911 59.4692 27.9002C59.187 28.1824 58.7585 28.6109 58.1836 29.1857C57.1176 28.3287 56.5845 27.6859 56.5845 27.2574C56.5845 26.6198 57.013 25.9771 57.8701 25.3291C57.5879 25.0469 57.1594 24.6183 56.5845 24.0435C56.8563 23.8345 57.3893 23.4059 58.1836 22.7579C58.4554 23.2387 58.9936 24.2055 59.7984 25.6583Z" fill="url(#paint15_linear)"/>
<path d="M61.3035 25.3291C61.1989 25.6008 60.9899 26.1391 60.6764 26.9438C60.9899 26.9438 61.6275 26.9438 62.589 26.9438C62.8085 31.6471 62.4897 34.4273 61.6327 35.2843C61.988 35.5038 62.5211 35.8226 63.2318 36.2406C64.3083 34.3175 64.6323 31.2186 64.2038 26.9438C64.9145 26.9438 65.9858 26.9438 67.4177 26.9438C68.0553 30.3615 67.7313 32.8229 66.4457 34.328C66.8011 34.537 67.3393 34.8558 68.0605 35.2843C69.0116 34.0615 69.4871 32.2742 69.4871 29.9226C69.4871 28.5743 69.3304 27.0431 69.0168 25.3291C67.3027 25.3291 64.7316 25.3291 61.3035 25.3291Z" fill="url(#paint16_linear)"/>
<path d="M79.9284 25.0155C79.9284 25.0155 80.0172 25.5903 80.1949 26.74C78.6899 26.646 77.4095 26.6198 76.3539 26.6616C75.2983 26.7139 74.2427 26.808 73.187 26.9438C72.7585 27.1529 72.5443 27.6859 72.5443 28.543C72.5443 30.0375 72.654 32.3944 72.8735 35.6135C72.5181 35.6762 71.9799 35.7808 71.2587 35.9271C71.0497 32.708 70.9452 30.2727 70.9452 28.6213C70.9452 26.9595 71.0497 26.0764 71.2587 25.9718C71.4782 25.7628 71.8649 25.5694 72.4188 25.3918C73.9866 25.1409 76.4898 25.0155 79.9284 25.0155Z" fill="url(#paint17_linear)"/>
<path d="M84.6003 25.3291C84.6526 25.6008 84.7571 26.1391 84.9139 26.9438C82.9907 27.5814 82.2434 28.6475 82.672 30.1421C83.3095 30.1421 84.2711 30.1421 85.5566 30.1421C85.1281 31.2186 84.9139 31.7569 84.9139 31.7569C84.9139 31.7569 84.292 31.7569 83.0482 31.7569C83.3827 32.8125 83.9 34.098 84.6003 35.6135C84.245 35.7494 83.7067 35.9584 82.9855 36.2406C82.7765 35.6031 82.348 34.375 81.7 32.5564C81.146 31.2395 80.8691 30.1107 80.8691 29.1701C80.8691 28.0622 81.2558 27.2104 82.0292 26.6146C82.6667 26.1861 83.5238 25.7576 84.6003 25.3291Z" fill="url(#paint18_linear)"/>
<rect x="8" y="39.625" width="112" height="2" fill="url(#paint19_linear)"/>
<path d="M8 41.625H38V52.625C38 55.3864 35.7614 57.625 33 57.625H8V41.625Z" fill="#C4C4C4"/>
<path d="M90 102.5C90 99.7386 92.2386 97.5 95 97.5H120V105.5C120 109.918 116.418 113.5 112 113.5H90V102.5Z" fill="#C4C4C4"/>
<rect x="43.6875" y="49.625" width="22" height="8" rx="1" fill="url(#paint20_linear)"/>
<rect x="91.125" y="50.25" width="22" height="8" rx="1" fill="url(#paint21_linear)"/>
<rect x="13.6875" y="77.4062" width="22" height="8" rx="1" fill="url(#paint22_linear)"/>
<rect x="35.6875" y="91.455" width="22" height="8" rx="1" fill="url(#paint23_linear)"/>
<rect x="58.5" y="77.4062" width="22" height="8" rx="1" fill="url(#paint24_linear)"/>
<rect x="13.6875" y="62.892" width="22" height="8" rx="1" fill="url(#paint25_linear)"/>
<rect x="43.6875" y="62.892" width="22" height="8" rx="1" fill="url(#paint26_linear)"/>
<rect x="73.6875" y="62.892" width="22" height="8" rx="1" fill="url(#paint27_linear)"/>
<defs>
<linearGradient id="paint0_linear" x1="8" y1="66" x2="120" y2="66" gradientUnits="userSpaceOnUse">
<stop stop-color="#DEDDDA"/>
</linearGradient>
<linearGradient id="paint1_linear" x1="7.99999" y1="28.1" x2="120" y2="28.1" gradientUnits="userSpaceOnUse">
<stop stop-color="#986A44"/>
</linearGradient>
<linearGradient id="paint2_linear" x1="8" y1="110.5" x2="120" y2="110.5" gradientUnits="userSpaceOnUse">
<stop stop-color="#241F31"/>
</linearGradient>
<linearGradient id="paint3_linear" x1="16.25" y1="15.5" x2="53.125" y2="15.5" gradientUnits="userSpaceOnUse">
<stop stop-color="#241F31"/>
</linearGradient>
<linearGradient id="paint4_linear" x1="77.25" y1="15.5" x2="114.125" y2="15.5" gradientUnits="userSpaceOnUse">
<stop stop-color="#241F31"/>
</linearGradient>
<linearGradient id="paint5_linear" x1="15.25" y1="14.5" x2="52.125" y2="14.5" gradientUnits="userSpaceOnUse">
<stop stop-color="#5E5C64"/>
</linearGradient>
<linearGradient id="paint6_linear" x1="76.25" y1="14.5" x2="113.125" y2="14.5" gradientUnits="userSpaceOnUse">
<stop stop-color="#5E5C64"/>
</linearGradient>
<linearGradient id="paint7_linear" x1="42.4434" y1="30.2413" x2="85.5566" y2="30.2413" gradientUnits="userSpaceOnUse">
<stop stop-color="#3D3846"/>
</linearGradient>
<linearGradient id="paint8_linear" x1="42.4434" y1="30.2413" x2="85.5566" y2="30.2413" gradientUnits="userSpaceOnUse">
<stop stop-color="#3D3846"/>
</linearGradient>
<linearGradient id="paint9_linear" x1="42.4434" y1="30.2413" x2="85.5566" y2="30.2413" gradientUnits="userSpaceOnUse">
<stop stop-color="#3D3846"/>
</linearGradient>
<linearGradient id="paint10_linear" x1="42.4434" y1="30.2413" x2="85.5566" y2="30.2413" gradientUnits="userSpaceOnUse">
<stop stop-color="#3D3846"/>
</linearGradient>
<linearGradient id="paint11_linear" x1="42.4434" y1="30.2413" x2="85.5566" y2="30.2413" gradientUnits="userSpaceOnUse">
<stop stop-color="#3D3846"/>
</linearGradient>
<linearGradient id="paint12_linear" x1="42.4434" y1="30.2413" x2="85.5566" y2="30.2413" gradientUnits="userSpaceOnUse">
<stop stop-color="#3D3846"/>
</linearGradient>
<linearGradient id="paint13_linear" x1="42.4434" y1="29.4993" x2="85.5566" y2="29.4993" gradientUnits="userSpaceOnUse">
<stop stop-color="#DEDDDA"/>
</linearGradient>
<linearGradient id="paint14_linear" x1="42.4434" y1="29.4993" x2="85.5566" y2="29.4993" gradientUnits="userSpaceOnUse">
<stop stop-color="#DEDDDA"/>
</linearGradient>
<linearGradient id="paint15_linear" x1="42.4434" y1="29.4993" x2="85.5566" y2="29.4993" gradientUnits="userSpaceOnUse">
<stop stop-color="#DEDDDA"/>
</linearGradient>
<linearGradient id="paint16_linear" x1="42.4434" y1="29.4993" x2="85.5566" y2="29.4993" gradientUnits="userSpaceOnUse">
<stop stop-color="#DEDDDA"/>
</linearGradient>
<linearGradient id="paint17_linear" x1="42.4434" y1="29.4993" x2="85.5566" y2="29.4993" gradientUnits="userSpaceOnUse">
<stop stop-color="#DEDDDA"/>
</linearGradient>
<linearGradient id="paint18_linear" x1="42.4434" y1="29.4993" x2="85.5566" y2="29.4993" gradientUnits="userSpaceOnUse">
<stop stop-color="#DEDDDA"/>
</linearGradient>
<linearGradient id="paint19_linear" x1="8.00001" y1="40.625" x2="120" y2="40.625" gradientUnits="userSpaceOnUse">
<stop stop-color="#63452C"/>
</linearGradient>
<linearGradient id="paint20_linear" x1="43.6875" y1="53.625" x2="65.6875" y2="53.625" gradientUnits="userSpaceOnUse">
<stop stop-color="#ED333B"/>
</linearGradient>
<linearGradient id="paint21_linear" x1="91.125" y1="54.25" x2="113.125" y2="54.25" gradientUnits="userSpaceOnUse">
<stop stop-color="#2EC27E"/>
</linearGradient>
<linearGradient id="paint22_linear" x1="13.6875" y1="81.4062" x2="35.6875" y2="81.4062" gradientUnits="userSpaceOnUse">
<stop stop-color="#ED333B"/>
</linearGradient>
<linearGradient id="paint23_linear" x1="35.6875" y1="95.455" x2="57.6875" y2="95.455" gradientUnits="userSpaceOnUse">
<stop stop-color="#2EC27E"/>
</linearGradient>
<linearGradient id="paint24_linear" x1="58.5" y1="81.4062" x2="80.5" y2="81.4062" gradientUnits="userSpaceOnUse">
<stop stop-color="#ED333B"/>
</linearGradient>
<linearGradient id="paint25_linear" x1="13.6875" y1="66.892" x2="35.6875" y2="66.892" gradientUnits="userSpaceOnUse">
<stop stop-color="#2EC27E"/>
</linearGradient>
<linearGradient id="paint26_linear" x1="43.6875" y1="66.892" x2="65.6875" y2="66.892" gradientUnits="userSpaceOnUse">
<stop stop-color="#2EC27E"/>
</linearGradient>
<linearGradient id="paint27_linear" x1="73.6875" y1="66.892" x2="95.6875" y2="66.892" gradientUnits="userSpaceOnUse">
<stop stop-color="#2EC27E"/>
</linearGradient>
</defs>
</svg>
